X:1
T:[ID 2-70]
T:[ID 2-70]
T:Bezeichnung standardisiert: Menuet [mit Trio] Menuet Con Trio 7.
T:Urheber unbekannt Datum in der hier transkribierten schriftlichen Quelle: 1767
C:Urheber unbekannt
C:Datum in der hier transkribierten schriftlichen Quelle: 1767
L:1/8
M:3/4
K:G
V:1 treble 
V:1
 GB d2 d2 | dBcA B2 | dg b2 b2 | bgaf g2 | efgedc | dfgdcB | c2 c2 B2 | A6 :: (af)(fd)(d"^c"c) | %9
 cAAFFD | EC B,2 A,2 | G,6 | G,2 B,DEF |"^1)" Adef g2 | (3edc B2 A2 | G6 :| %16
"^Trio" !fermata!d3 e d2 | d3 e d2 | dg b2 d2 |{d} c4 B2 | A3 c BG | A3 c B2 | d2 c2 B2 | A6 :: %24
 d3 e d2 | dcBA B2 | c3 d c2 | (cB)AG F2 | B3 c B2 | gfedcB | (3edc B2 A2 | G6 :| %32

